!!!COM: Palestrina, Giovanni Perluigi da
!!!OPR: Missa Memor esto
!!!OTL: Agnus
**kern	**kern	**kern	**kern	**kern
*Ibass	*Itenor	*Itenor	*Icalto	*Icant
!Bassus	!Tenor 2	!Tenor 1	!Altus	!Cantus
*clefF4	*clefGv2	*clefGv2	*clefG2	*clefG2
*k[b-]	*k[b-]	*k[b-]	*k[b-]	*k[b-]
*G:dor	*G:dor	*G:dor	*G:dor	*G:dor
*M4/2	*M4/2	*M4/2	*M4/2	*M4/2
=1	=1	=1	=1	=1
0r	1.d	0r	0r	0r
.	2d	.	.	.
=2	=2	=2	=2	=2
0r	1d	0r	0r	0r
.	1c	.	.	.
=3	=3	=3	=3	=3
1.G	2.d	0r	0r	0r
.	4c	.	.	.
.	4B-	.	.	.
.	4A	.	.	.
2G	[2B-	.	.	.
=4	=4	=4	=4	=4
1G	2B-]	0r	0r	0r
.	4A	.	.	.
.	4G	.	.	.
1F	1A	.	.	.
=5	=5	=5	=5	=5
2.B-	2.G	1.d	0r	0r
4A	4A	.	.	.
4G	[1B-	.	.	.
4F	.	.	.	.
[2G	.	2d	.	.
=6	=6	=6	=6	=6
2G]	2B-]	1d	0r	0r
2D	2A	.	.	.
1E-	1G	1c	.	.
=7	=7	=7	=7	=7
[0D	2.d	2.f	1.a	1r
.	4e	4e	.	.
.	1f	4d	.	[1dd
.	.	4c	.	.
.	.	[2d	2a	.
=8	=8	=8	=8	=8
1D]	2.f	2d]	1a	2dd]
.	.	2A	.	2dd
.	4e	.	.	.
1r	4d	1B-	1g	1dd
.	4c	.	.	.
.	2d	.	.	.
=9	=9	=9	=9	=9
1r	1e	1A	2.a	1cc
.	.	.	4g	.
2.d	1d	1r	4f	2.ff
.	.	.	4e	.
.	.	.	[2f	.
4c	.	.	.	4ee
=10	=10	=10	=10	=10
4B-	2.f	1r	2f]	4dd
4A	.	.	.	4cc
1B-	.	.	2d	1dd
.	4e	.	.	.
.	4d	2.f	2b-	.
.	4c	.	.	.
2F	[2d	.	[2a	2a
.	.	4e	.	.
=11	=11	=11	=11	=11
1G	2d]	4d	2a]	1b-
.	.	4c	.	.
.	2G	1d	2.g	.
1D	1A	.	.	1a
.	.	.	4f	.
.	.	2A	4f	.
.	.	.	8e	.
.	.	.	8d	.
=12	=12	=12	=12	=12
2r	1A	2c	2e	1a
2D	.	4d	2f#	.
.	.	4c	.	.
1G	1r	4B-	2.g	1b-
.	.	4G	.	.
.	.	[2d	.	.
.	.	.	4f	.
=13	=13	=13	=13	=13
2G	1r	2d]	1e	2b-
2A	.	2c#	.	2a
1B-	2r	1d	1d	2f
.	2G	.	.	2g
=14	=14	=14	=14	=14
2.G	1d	0r	2r	2.b-
.	.	.	2d	.
4A	.	.	.	4cc
2B-	2d	.	1g	2dd
2c	2e	.	.	2cc
=15	=15	=15	=15	=15
1F	1f	0r	2a	1cc
.	.	.	2a	.
1G	2.d	.	1b-	2r
.	.	.	.	2g
.	4e	.	.	.
=16	=16	=16	=16	=16
2r	2f	1r	2a	1dd
2G	2g	.	2.b-	.
2G	2d	1G	.	2dd
.	.	.	8a	.
.	.	.	8b-	.
2C	2g	.	4cc	2ee
.	.	.	4b-	.
=17	=17	=17	=17	=17
1D	4f	1d	4a	2.ff
.	4e	.	4g	.
.	4d	.	2f	.
.	4c	.	.	4ee
1G	1B-	2d	1g	4dd
.	.	.	.	4cc
.	.	2e	.	[2b-
=18	=18	=18	=18	=18
1F	1c	1f	2r	2b-]
.	.	.	2cc	2a
1r	2.B-	2.d	2f	[1ff
.	.	.	2b-	.
.	4c	4e	.	.
=19	=19	=19	=19	=19
0r	2d	2f	2a	2ff]
.	2G	2g	2b-	4ee
.	.	.	.	4dd
.	2r	1c	2.cc	1ee
.	2g	.	.	.
.	.	.	4b-	.
=20	=20	=20	=20	=20
1D	2f	1d	4a	2dd
.	.	.	4g	.
.	2a	.	2f	2ff
1G	2.g	1r	1b-	2ee
.	.	.	.	[2dd
.	4f	.	.	.
=21	=21	=21	=21	=21
2G	1e	1r	2b-	2dd]
2A	.	.	4a	2cc#
.	.	.	4g	.
1B-	1d	2r	2f	[1dd
.	.	2G	2b-	.
=22	=22	=22	=22	=22
2.G	2r	1d	1.b-	1dd]
.	2g	.	.	.
4A	.	.	.	.
2B-	2f	2d	.	1r
2c	2e	2e	2g	.
=23	=23	=23	=23	=23
1F	2d	2f	1a	1r
.	1c	2f	.	.
[1G	.	1d	1g	2r
.	4B	.	.	[2dd
.	4A	.	.	.
=24	=24	=24	=24	=24
1G]	1B	1d	2r	2dd]
.	.	.	1g	2dd
1C	1c	2r	.	[1ee-
.	.	2c	2g	.
=25	=25	=25	=25	=25
0r	0r	2g	1.b-	2ee-]
.	.	1g	.	2dd
.	.	.	.	2b-
.	.	2f	2a	2cc
=26	=26	=26	=26	=26
0r	2r	2.d	2.f	2dd
.	1d	.	.	2.ff
.	.	4e	4g	.
.	.	1f	2a	.
.	.	.	.	4ee
.	2d	.	[2b-	4dd
.	.	.	.	4cc
=27	=27	=27	=27	=27
0r	1.e-	1g	4b-]	2.b-
.	.	.	4a	.
.	.	.	4g	.
.	.	.	4f	4a
.	.	1r	2g	4b-
.	.	.	.	4cc
.	2d	.	4f	[2dd
.	.	.	4e	.
=28	=28	=28	=28	=28
0r	2B-	1r	2d	2dd]
.	2c	.	1g	4cc
.	.	.	.	4b-
.	1d	2r	.	1a
.	.	[2d	2f#	.
=29	=29	=29	=29	=29
2r	1G	2d]	2g	1.b-
1G	.	2d	2g	.
.	1g	[1e-	2g	.
2G	.	.	[2b-	2g
=30	=30	=30	=30	=30
1.B-	2.f	2e-]	4b-]	2r
.	.	.	4a	.
.	.	2d	2f	2dd
.	4e	.	.	.
.	2d	2B-	2g	2dd
2A	2e	2c	[2a	2cc
=31	=31	=31	=31	=31
2F	2f	1.d	2a]	2a
2G	2d	.	4g	2b-
.	.	.	4f	.
[1A	1r	.	1e	2a
.	.	4c#	.	[2ee
.	.	4B	.	.
=32	=32	=32	=32	=32
1A]	1A	1c#	1e	2ee]
.	.	.	.	2ee
1D	1A	2d	1a	[1ff
.	.	[2d	.	.
=33	=33	=33	=33	=33
0r	1.B-	2d]	2f	2ff]
.	.	2d	2f	1dd
.	.	[1f	2d	.
.	2A	.	[2a	2cc
=34	=34	=34	=34	=34
0r	2F	2f]	2a]	2dd
.	2G	2e	4g	1ee
.	.	.	4f	.
.	[1A	2c#	2e	.
.	.	2d	2f	[2dd
=35	=35	=35	=35	=35
1r	1A]	1e	2e	2dd]
.	.	.	1a	2cc#
1D	1f	[1d	.	[1dd
.	.	.	[2a	.
=36	=36	=36	=36	=36
1D	1f	1d]	2a]	1dd]
.	.	.	2.b-	.
[1E-	2g	1G	.	1r
.	.	.	4a	.
.	4G	.	[2g	.
.	4A	.	.	.
=37	=37	=37	=37	=37
2E-]	4B-	2G	2g]	0r
.	4c	.	.	.
2D	1d	1B-	2f	.
2BB-	.	.	2g	.
2C	4c	2A	[2a	.
.	4B-	.	.	.
=38	=38	=38	=38	=38
0D	2A	2F#	2a]	1r
.	2d	2G	1g	.
.	1d	1A	.	[1dd
.	.	.	2f#	.
=39	=39	=39	=39	=39
1G	1B	1G	[0g	2dd]
.	.	.	.	2dd
1C	1c	2r	.	[1ee-
.	.	2c	.	.
=40	=40	=40	=40	=40
2C	4G	2c	0g]	2ee-]
.	4A	.	.	.
1G	4B	1d	.	2dd
.	4c	.	.	.
.	2d	.	.	2b
2C	2e-	[2c	.	2cc
=41	=41	=41	=41	=41
1G	1d	4c]	[0g	1dd
.	.	4B	.	.
.	.	2B	.	.
1C	1e-	1c	.	1cc
=42	=42	=42	=42	=42
0G	0d	0B	0g]	0dd
==	==	==	==	==
*-	*-	*-	*-	*-
!!!CDT: 1525/^1526/-1594/2/2
!!!OCY: Italia
!!!AGN: Mass (Parody)
!!!AST: renaissance, vocal
!!!ASW: Motet 1572 (Palestrina)
!!!PWK: Masses, Book 8
!!!RNB: Cadence finals: A,D
!!!YOR: Le Opere Complete, v. 24, p. 86
!!!YOO: Rome, Italy: Fratelli Scalera
!!!END: 1992//
!!!EED: John Miller
!!!YEC: Copyright 2000, John Miller
!!!YEN: United States of America
!!!YEM: Rights to all derivative electronic formats reserved.
!!!YEM: Refer to licensing agreement for further details.
!!!YEM: This file must be accompanied by the licensing agreement.
!!!YEM: A copy of the licensing agreement may be found at http://www.music-cog.ohio-state.edu/HumdrumDatabases/Palestrina/license.txt
!!!EMD: converted to Humdrum by Bret Aarden
